X:3521
L:1/8
M:6/8
K:C
 c2 c | G2 G ABA | G4 c4 | d2 e f2 e | d2 c c2 c | G2 G ABA | G2 G c2 c | ded e2 d | !fermata!c3 :: 
 efg | g3 efg | g3 efg | a2 g f2 e | d2 c efg | g3 efg | g3 efg | a2 g f2 e | d3 :|

